X:1
T:Title
%%score { 1 | 2 }
L:1/8
M:3/4
K:G
V:1 treble nm="Grand Piano"
V:2 bass 
V:1
 z2 z2[Q:1/4=116] D2 | D2 E2 F2 | G2 c2 [DB]2 | [^CB]2 [CE]2 [CE]2 | [^CE]6 | [CF]2 [Fe]2 [Fe]2 | %6
 [Fe]6 | G2 e2 e2 | e4 D2 | D2 E2 F2 | G2 c2 [DB]2 | [^CB]2 [CE]2 [CE]2 | [^CE]6 | %13
 [CF]2 [Fe]2 [Fe]2 | [Fe]4 F2 |[M:2/4] G4 |[M:1/4] d2 |[M:3/4] d2 F2 F2 | F2 E2 D2 | E2 B2 B2 | %20
[M:2/4] B4 |[M:1/4] E2 |[M:3/4] F2 [EFc]2 [EFc]2 | [EFc]2 [DFB]2 A2 | G2 d2 d2 | d4 [A^d]2 | %26
 [^Ge]2 [EGB]2 [=FBd]2 | [=FBd]2 [EAc]2 [EAc]2 | [^DFB]2 [B,DF]2 [CFA]2 | [B,EG]4 [^CGA]2 | %30
 [DGB]2 [Ge]2 [Ge]2 | [Fe]4 [DF]2 |[M:2/4] [B,DG]4 |] %33
V:2
 z2 z2 [G,B,]2 | [G,B,]2 [G,_B,^C]2 [D,A,=C]2 | [G,B,]2 [G,E]2 [G,,G,]2 | %3
 [A,,G,]2 [A,,G,]2 [A,,G,]2 | [A,,G,]6 | [D,A,]2 [D,C]2 [D,C]2 | [D,C]6 | %7
 [G,B,D]2 [G,B,G]2 [G,B,G]2 | [G,B,G]4 [G,B,]2 | [G,B,]2 [G,_B,^C]2 [D,A,=C]2 | %10
 [G,B,]2 [G,E]2 [G,,G,]2 | [A,,G,]2 [A,,G,]2 [A,,G,]2 | [A,,G,]6 | [D,A,]2 [D,C]2 [D,C]2 | %14
 [D,C]4 [D,CD]2 |[M:2/4][K:treble] [G,B,D]4 |[M:1/4] [B,DG]2 | %17
[M:3/4] [A,CF]2[K:bass] [D,A,C]2 [D,A,C]2 | [D,A,C]2 [E,A,C]2 [F,A,C]2 | %19
 [G,B,]2 [G,B,E]2 [G,B,E]2 |[M:2/4] [G,B,E]4 |[M:1/4] [B,D]2 |[M:3/4] [A,CD]2 D,2 D,2 | %23
 D,2 E,2 [F,CD]2 | [G,B,D]2 [G,B,G]2 [A,CF]2 | [B,DG]4[K:bass] [=F,B,]2 | [E,B,]2 E,2 ^G,2 | %27
 A,2 A,2 A,2 | B,2 B,,2 ^D,2 | E,4 A,,2 | D,2 [D,B,]2 [D,B,]2 | [D,C]4 [D,C]2 |[M:2/4] [G,,G,]4 |] %33

